X:11708
T:New Brunswick Breakdown
R:Reel
M:2/4
L:1/16
K:C
e2|:g^fga g2e2|cBcd c2A2|G^FGA BAGB|a2g2 g4|
g^fga g2e2|cBcd c2A2|G^FGA BGAB|c2cc c2z2:|
|:G2GG G2AB|c2c2 c2Bc|d2d2 d2cd|eag^f g4|
G2GG G2AB|c2c2 c2Bc|d2Ac BAG2|c2cc c2z2:|
